X: 6200
T: Caribou Shuffle, The
R: reel
M: 4/4
K: Gmajor
G4 A4|:B2Bc BAGB|g2ga fedc|B2Bc BAGA|B2A2 A2GA|
B2Bc BAGB|g2ga fedc|B2Bc BAGB|AGFA G2G2:|
K: Dmaj
|:A3A A2AA|ABAG FED2|DFAd f2ef|gfed cABc|defg a2a2|
A3A A2AA|ABAG FED2|DFAd f2ef|gfed cABc|1 d2f2 d4:|2 d4 =c4||

